img/pets/double-right_arrow.svg

<svg width="25" height="11" viewBox="0 0 25 11" fill="none" xmlns="http://www.w3.org/2000/svg">
<path d="M10.0055 6.08789L0.972265 10.7852V9.44727L8.48203 5.53125L0.972265 1.625V0.287109L10.0055 4.98438V6.08789ZM24.0766 6.08789L15.0434 10.7852V9.44727L22.5531 5.53125L15.0434 1.625V0.287109L24.0766 4.98438V6.08789Z" fill="#292929"/>
</svg>

<svg width="25" height="11" fill="none" xmlns="http://www.w3.org/2000/svg"><path d="M10.005 6.088.973 10.785V9.447l7.51-3.916-7.51-3.906V.287l9.034 4.697v1.104Zm14.072 0-9.034 4.697V9.447l7.51-3.916-7.51-3.906V.287l9.034 4.697v1.104Z" fill="#292929"/></svg>
